X: 440
T: Shenhuir jianshang ni xiaolianlian
L: 1/16
M: 2/4
K: D
A2 B2 e2 B A [I:setbarnb 1]| 
F A E D B B3 | 
A4G A3 | 
B2 B e B2 B B | 
B8 | 
A2 B2 e2 B A | 
F A E D B, B,3 | 
A4G A3 | 
B2 B e B,2 B, D | 
E8 |]

@@@ Tune index: 9314
